X: 105102
T: FLORA MACDONALD
Q:"Reel."
R: Reel.
%R:reel
B: James Kerr "Merry Melodies" v.1 p.5 s.1 #2
Z: 2017 John Chambers <jc:trillian.mit.edu>
M: C
L: 1/8
K: Em
F |:\
E2(EF) BFEF | E2(EF) dFDF |\
E2(EF) EFGA | BdAd FDAF ::\
Eee^d eEEF | Eee^c dDAF |\
Eeed B^cde | faef dDAF :|

%%sep 1 1 500
%%sep 1 1 500

